X:5826
T:Schottisch für Hans Hermann
O:england
C:Stephan Steiner
R:Scottish
M:4/4
L:1/8
K:Gmix
B2 AG B2 A(G|G)ABd g2 fe|f2 ec fdA(G|G)FAc fdAc|
Bc/B/ AG BcAB|GABd fagf|1 ecG(d d)_BG(c|c)AGc AFdA:|2 ecG(d d)_BG(c|c)AGc FdGf||
|:g2 ag fg/f/ed|ef/e/dc dGdg|fA{c}Ag A{c}AfA|{c}AeA{c}A fef^f|
g3 a/g/ fgag|efe/d/c f3 d|1 ecG(d d)_BG(c|c)AGc FdGf:|2 ecG(d d)_BG(c|c)AGc AFdA||
Homepage/ in Entstehung begriffen
Simon Wascher
Drehleierspieler
Mariahilferstrasse 61/2/24
A-1060 Wien
Tel:+43/(0) 1.913 01 89
e-mail: simon.wascher@chello.at
URL: http://members.teleweb.at/simon.wascher/
besides this collection, I made two books with traditional tunes especially collected to
fit for hurdy gurdy and/or bagpipes:
you find more information at the following URL:
http://members.teleweb.at/simon.wascher/homepage_abc.htm (in German)
this page is also the place where you find the tunes collection when surfing the net.
my abc collection in the net (permanently under construction)
Bourree a deux temps at http://members.chello.at/simon.wascher/simon_wascher_bourree_a_2.abc
Bourree a trois temps at http://members.chello.at/simon.wascher/simon_wascher_bourree_a_3.abc
Zwiefach at http://members.chello.at/simon.wascher/simon_wascher_zwiefach.abc
Breton tunes at http://members.chello.at/simon.wascher/simon_wascher_breton.abc
Steirer at http://members.chello.at/simon.wascher/simon_wascher_steirer.abc
Walzer at http://members.chello.at/simon.wascher/simon_wascher_walzer.abc
Schottisch at http://members.chello.at/simon.wascher/simon_wascher_schottisch.abc
Mazurka at http://members.chello.at/simon.wascher/simon_wascher_mazurka.abc
Polka at http://members.chello.at/simon.wascher/simon_wascher_polka.abc
6/8 Taenze at http://members.chello.at/simon.wascher/simon_wascher_6_8.abc
Landler at http://members.chello.at/simon.wascher/simon_wascher_landler.abc
Lieder at http://members.chello.at/simon.wascher/simon_wascher_lieder.abc
Bourree a deux temps
============


